X: 4
T:Atkin's Polka No.1
R:Polka
M:2/4
L:1/16
K:G
A2|ffff g2f2|f2e2 e^de2|gggg a2g2|g2f2 fef2|
aaaa b2f2|a2g2 gfe2|AA^GA f2e2|d2d^c d2:|
K:A
|:d2|cde2 c'ae2|cde2 c'ae2|d'2c'2 b2a2|g2f2 e2d2|
cde2 c'ae2|cde2 c'ae2|d'2c'2 b2a2|gefg a2:|
